X: 19
T:Merrydale Romp
% Nottingham Music Database
S:Dennis Salter, via PR
M:4/4
L:1/4
K:D
[F/2A/2][G/2B/2]|"D"[Ad][F/2A/2][A/2d/2] [df][c/2e/2][d/2f/2]|[Bd][Ad] [A2d2]|"D"[Ad][F/2A/2][A/2d/2] [d/2f/2][c/2e/2][B/2d/2][A/2d/2]|"Em"[GB][EG] [E2G2]|\
"Em"[GB][F/2A/2][G/2B/2] "A7"[ce][ce]|
"Em"[GB][F/2A/2][G/2B/2] "A7"[c2e2]|"Em"[GB][E/2G/2][G/2B/2] "A7"[c/2e/2][B/2d/2][A/2c/2][G/2A/2]|"D"[Bd][Ad] [A2d2]|"D"[Ad][F/2A/2][A/2d/2] [df][c/2e/2][d/2f/2]|\
[Bd][Ad] [A2d2]|"D"[df][c/2e/2][d/2f/2] "D7"[eg][df]|
"G"[dg][Bd] [B2d2]|"G"[eg][^d/2g/2][e/2g/2] "Gm"[=fa][e/2g/2][f/2a/2]|"D"[fa][df] "B7"[AB][^G/2=c/2][A/2B/2]|"Em"[Be][^A/2d/2][B/2e/2] "A7"[ce][^G=c]|\
"D"[df][=ce] "D7"[Bd][A=c]||
K:G
"G"[d2g2] [g3/2b3/2][f/2a/2]|[eg][dg] [d2g2]|"G"[dg][^c/2=f/2][d/2g/2] [e/2g/2][d/2g/2][B/2d/2][B/2d/2]|"Am"[ce][Ac] [A2c2]|"Am"[ce][B/2d/2][c/2e/2] "D7"[Ac][Ac]|\
"Am"[Ac][^G/2c/2][A/2c/2] "D7"[F2A2]|
"Am"[ce][B/2d/2][c/2e/2] "D7"[f/2a/2][e/2g/2][d/2f/2][c/2d/2]|"G"[eg][dg] [dg][B/2d/2][c/2e/2]|"G"[dg][B/2d/2][d/2g/2] [g3/2b3/2][f/2a/2]|[eg][dg] [d2g2]|
"G"[dg][B/2d/2][d/2g/2] "G7"[gb][gb]|"C"[gc'][eg] [e2g2]|"C"[Ac]z"Cm"[^Ad]z|"G"[Bd][GB] [dg][^c/2=f/2][d/2g/2]|"Am"[ea][^d/2g/2][e/2a/2] "D7"[fa][^c=f]|\
"G"[g3b3]||


